!!!COM: nicki-minaj
!!!OTL: turn-me-on
!!!RNB: hooktheoryid: YRzojGQkmDe
**kern	**text
*clefG2	*
*k[b-e-a-]	*
*M4/4	*
=1	=1
4.g	Cm
4f	Bb
4b-	.
[8e-	Ab
=2	=2
4e-]	Ab
8e-	.
8e-	.
8a-	.
8a-	.
4g	.
=3	=3
4.f	Ab
8e-	Bb
8a-	.
8a-	.
[8gL	.
8g]J	Cm
=4	=4
4.f	Cm
4.e-	.
4r	.
=5	=5
4g	Cm
8f	.
4f	Eb
4b-	.
[8e-	Ab
=6	=6
16e-]	Ab
16d	.
4c	.
4a-	.
4g	.
8g	.
=7	=7
4.f	Ab
4a-	Bb
4a-	.
8g	Cm
=8	=8
4.f	Cm
4.e-	.
4r	.
*-	*-